!!!ONB: MCCC : IWM0407_01 : Extracted Monophonic Melody
!!!COM: Mozart, Wolfgang Amadeus
!!!OPR: Piano Sonata No.7
!!!OMV: 1
!!!SCT: K.309 ; K⁶.284b ; Op.4 No.1
!!!ODT: 1777///
**kern
*thru
*staff1
*>A
*clefG2
*k[]
*C:
*met(c)
*M4/4
*MM160
=1
2cc
2g
=2
4.ee
16ff
16dd
4cc
4r
=3
4gg
4gg
4r
4aa
=4
16gg
8.ff
4ff
4r
4gg
=5
16ff
8.ee
4ee
4r
8gg
8ee
=6
8cc#
8dd
8ff
8ee
8cc#
8dd
8ff
8ee
=7
8cc#
8dd
8ff
8aa
8gg
8ee
8ff
8dd
=8
2cc
2g
=9
4.ee
16ff
16dd
4cc
4r
=10
4gg
4gg
4r
4aa
=11
16gg
8.ff
4ff
8r
8ff#
8aa
8gg
=12
16ff
8.ee
4ee
8r
8ee
8gg
8ee
=13
4.cc#
16dd
16ee
4dd
8r
8ff
=14
4.ee
16ff
16gg
4ff
4r
=15
8ccc
8ccc
2ccc
8bb
8aa
=16
8gg
8gg
2gg
8ff
8ee[
=17
16ee]
16dd
16ff
16ee
16gg
16ff
16ee
16dd
4cc
4b
=18
8ccc
8ccc
4.ccc
16ddd
16ccc
8bb
8aa
=19
8gg
8gg
4.gg
16aa
16gg
8ff
[8ee
=20
16ee]
16dd
16aa
16gg#
16bb
16aa
16gg
16ff
4ee
4dd
=21
4cc
8r
16cc
16b
8cc
8dd#
8ee
8ff#
=22
8gg
8bb
8ccc
8ddd#
4eee
4r
=23
4ddd:
8r
16b
16a
8b
8cc#
8dd
8ff#
=24
8gg
8aa#
8bb
8ccc#
4ddd
4r
=25
4ccc:
8r
16a
16g#
8a
8b
8cc
8ee#
=26
8ff#
8gg#
8aa
8bb
4ccc
4r
=27
16ccc
16bb
16aa
16gg
16gg
16ff#
16ee
16dd
2ccc
=28
16ccc
16bb
16aa
16gg
16gg
16ff#
16ee
16dd
2ccc
=29
16bb
16aa
16ccc
16bb
8ddd
8ff#
16gg
16ff#
16aa
16gg
8bb
8dd#
=30
16ee
16dd#
16ff#
16ee
8gg
8b
16cc
16b
16dd
16cc
8ee
8g#
=31
8.a
16b
8.cc
16b
8.a
16g
8.f#
16e
=32
8d
16f#
16a
8dd
8dd
4dd
4r
=33
1r
=34
1r
=35
8bb
8ccc
8ddd
8bb
2gg
=36
8aa
8bb
8ccc
8aa
2ff#
=37
16gg
8ff#
16r
16ee
8dd
16r
16b
8cc
16r
4r
=38
16cc
8b
16r
16a
8g
16r
16b
8a
16r
4r
=39
8bb
8ccc
8ddd
8bb
2gg
=40
8aa
8bb
8ccc
8aa
2ff#
=41
16gg
8.ff#
16ee
8.dd
16b
8.cc
4r
=42
16cc
8.b
16a
8.g
16ee
8.dd
4r
=43
2ddd
8ccc
8bb
8aa
8gg
=44
2eee
8ddd
8ccc
8bb
8aa
=45
16bb
16ccc
16ddd
16bb
8gg
8r
16aa
16bb
16ccc
16aa
8ff#
8r
=46
2ddd
16ccc
16ddd
16ccc
16bb
16aa
16bb
16aa
16gg
=47
2eee
16ddd
16eee
16ddd
16ccc
16bb
16ccc
16bb
16aa
=48
8bb
8gg
4ccc
8bb
8gg
4eee
=49
8ddd
8gg
4ccc
8bb
8gg
4eee
=50
2fff
4fff
4fff
=51
8eee
8ddd
8ccc
8bb
8aa
8gg
8ff#
8ee
=52
8dd
16ee
16ff#
16gg
16aa
16bb
16ccc
16ddd
16ccc
16bb
16ccc
16ddd
16bb
16aa
16gg
=53
1aa
=54
4gg
8r
8b
8dd
8cc
8r
8a
=55
8cc
8b
8r
8g
8b
8a
8r
8f#
=56
8a
8g
16b
16cc
16dd
16b
16cc
16dd
16ee
16cc
16aa
16bb
16ccc
16aa
=57
16bb
16ccc
16ddd
16bb
16g
16a
16b
16g
16a
16b
16cc
16a
16ff#
16gg
16aa
16ff#
=58
4gg
4bb:
4gg:
4r
=59
*>A
*M4/4
2cc
2g
=60
4.ee
16ff
16dd
4cc
4r
=61
4gg
4gg
4r
4aa
=62
16gg
8.ff
4ff
4r
4gg
=63
16ff
8.ee
4ee
4r
8gg
8ee
=64
8cc#
8dd
8ff
8ee
8cc#
8dd
8ff
8ee
=65
8cc#
8dd
8ff
8aa
8gg
8ee
8ff
8dd
=66
2cc
2g
=67
4.ee
16ff
16dd
4cc
4r
=68
4gg
4gg
4r
4aa
=69
16gg
8.ff
4ff
8r
8ff#
8aa
8gg
=70
16ff
8.ee
4ee
8r
8ee
8gg
8ee
=71
4.cc#
16dd
16ee
4dd
8r
8ff
=72
4.ee
16ff
16gg
4ff
4r
=73
8ccc
8ccc
2ccc
8bb
8aa
=74
8gg
8gg
2gg
8ff
8ee[
=75
16ee]
16dd
16ff
16ee
16gg
16ff
16ee
16dd
4cc
4b
=76
8ccc
8ccc
4.ccc
16ddd
16ccc
8bb
8aa
=77
8gg
8gg
4.gg
16aa
16gg
8ff
[8ee
=78
16ee]
16dd
16aa
16gg#
16bb
16aa
16gg
16ff
4ee
4dd
=79
4cc
8r
16cc
16b
8cc
8dd#
8ee
8ff#
=80
8gg
8bb
8ccc
8ddd#
4eee
4r
=81
4ddd:
8r
16b
16a
8b
8cc#
8dd
8ff#
=82
8gg
8aa#
8bb
8ccc#
4ddd
4r
=83
4ccc:
8r
16a
16g#
8a
8b
8cc
8ee#
=84
8ff#
8gg#
8aa
8bb
4ccc
4r
=85
16ccc
16bb
16aa
16gg
16gg
16ff#
16ee
16dd
2ccc
=86
16ccc
16bb
16aa
16gg
16gg
16ff#
16ee
16dd
2ccc
=87
16bb
16aa
16ccc
16bb
8ddd
8ff#
16gg
16ff#
16aa
16gg
8bb
8dd#
=88
16ee
16dd#
16ff#
16ee
8gg
8b
16cc
16b
16dd
16cc
8ee
8g#
=89
8.a
16b
8.cc
16b
8.a
16g
8.f#
16e
=90
8d
16f#
16a
8dd
8dd
4dd
4r
=91
1r
=92
1r
=93
8bb
8ccc
8ddd
8bb
2gg
=94
8aa
8bb
8ccc
8aa
2ff#
=95
16gg
8ff#
16r
16ee
8dd
16r
16b
8cc
16r
4r
=96
16cc
8b
16r
16a
8g
16r
16b
8a
16r
4r
=97
8bb
8ccc
8ddd
8bb
2gg
=98
8aa
8bb
8ccc
8aa
2ff#
=99
16gg
8.ff#
16ee
8.dd
16b
8.cc
4r
=100
16cc
8.b
16a
8.g
16ee
8.dd
4r
=101
2ddd
8ccc
8bb
8aa
8gg
=102
2eee
8ddd
8ccc
8bb
8aa
=103
16bb
16ccc
16ddd
16bb
8gg
8r
16aa
16bb
16ccc
16aa
8ff#
8r
=104
2ddd
16ccc
16ddd
16ccc
16bb
16aa
16bb
16aa
16gg
=105
2eee
16ddd
16eee
16ddd
16ccc
16bb
16ccc
16bb
16aa
=106
8bb
8gg
4ccc
8bb
8gg
4eee
=107
8ddd
8gg
4ccc
8bb
8gg
4eee
=108
2fff
4fff
4fff
=109
8eee
8ddd
8ccc
8bb
8aa
8gg
8ff#
8ee
=110
8dd
16ee
16ff#
16gg
16aa
16bb
16ccc
16ddd
16ccc
16bb
16ccc
16ddd
16bb
16aa
16gg
=111
1aa
=112
4gg
8r
8b
8dd
8cc
8r
8a
=113
8cc
8b
8r
8g
8b
8a
8r
8f#
=114
8a
8g
16b
16cc
16dd
16b
16cc
16dd
16ee
16cc
16aa
16bb
16ccc
16aa
=115
16bb
16ccc
16ddd
16bb
16g
16a
16b
16g
16a
16b
16cc
16a
16ff#
16gg
16aa
16ff#
=116
4gg
4bb:
4gg:
4r
=117
*>B
2g
2d
=118
4.b-
16cc
16a
4g
4r
=119
4.dd
16ee-
16cc
4b-
4r
=120
4.bb-
16ccc
16aa
4gg
4r
=121
4r
4gg
4ddd
4eee
=122
2ddd
4ccc#
4r
=123
8r
16r
16gg
8.gg
32ff#
32gg
4ddd
4eee
=124
2ddd
4ccc#
4r
=125
2d
2A
=126
4.f
16g
16e
4d
4r
=127
8r
16r
16dd
8.dd
32cc#
32dd
4aa
4bb
=128
2aa
4gg#
4r
=129
8r
8aa
8ddd
8ccc#
8eee
8ddd
8ccc
8bb
=130
2aa
4gg#
4r
=131
2ccc
2aa
=132
4.ddd#
16eee
16ddd#
4eee
4r
=133
2bb-
2gg
=134
4.ccc#
16ddd
16ccc#
4ddd
4r
=135
4.bb
16ccc
16bb
4ccc
4r
=136
4.gg#
16aa
16gg#
4aa
4r
=137
8r
8aa
8ccc
8ff#
8aa
8dd#
8ff#
8cc
=138
8dd#
8a
8cc
8f#
8a
8d#
8f#
8A
=139
2.r
4gg#
=140
4aa
8r
8cc
8ee
8dd
8r
8b
=141
8dd
8cc
8r
8a
8cc
8b
8r
8g#
=142
8b
8a
16cc
16dd
16ee
16cc
16dd
16ee
16ff
16dd
16b
16cc
16dd
16b
=143
16cc
16dd
16ee
16cc
16a
16b
16cc
16a
16b
16cc
16dd
16b
16g#
16a
16b
16g#
=144
2a
2e
=145
4.cc
16dd
16b
4a
4r
=146
4.ee
16ff
16dd
4cc
4r
=147
4.ccc
16ddd
16bb
4aa
4r
=148
2b
2g
=149
4.dd
16ee
16cc
4b
4r
=150
4.ff
16gg
16ee
4dd
4r
=151
4.ddd
16eee
16ccc
4bb
4r
=152
2cc
2g
=153
4.ee
16ff
16dd
4cc
4r
=154
4gg
4gg
4r
4aa
=155
16gg
8.ff
4ff
4r
4gg
=156
16ff
8.ee
4ee
4r
8gg
8ee
=157
8cc#
8dd
8ff
8ee
8cc#
8dd
8ff
8ee
=158
8cc#
8dd
8ff
8aa
8gg
8ee
8ff
8dd
=159
2cc
2g
=160
4.ee-
16ff
16dd
4cc
4r
=161
16ff#
8.gg
4gg
8r
8cc
8ccc
8aa-
=162
8gg
8ff#
4ff
8r
8ff
8aa-
8gg
=163
8ff
8ee
2ddd-
4ee
=164
4gg
4ff
8r
8ff
8ccc
8aa-
=165
8gg
8ff#
2eee-
4ff#
=166
8aa
8gg
8ff#
8gg
8ff#
8gg
8ff#
8gg
=167
8ff#
8gg
8ff#
8gg
8gg#
8aa
8bb-
8bb
=168
8ccc
8ccc
2ccc
8bb
8aa
=169
8gg
8gg
2gg
8ff
8ee[
=170
16ee]
16dd
16ff
16ee
16gg
16ff
16ee
16dd
4cc
4b
=171
8ccc
8ccc
4.ccc
16ddd
16ccc
8bb
8aa
=172
8gg
8gg
4.gg
16aa
16gg
8ff
[8ee
=173
16ee]
16dd
16aa
16gg#
16bb
16aa
16gg
16ff
4ee
4dd
=174
4cc
8r
16cc
16b
8cc
8dd#
8ee
8ff#
=175
8gg
8bb
8ccc
8ddd#
4eee
4r
=176
4ddd:
8r
16b
16a
8b
8cc#
8dd
8ff#
=177
8gg
8aa#
8bb
8ccc#
4ddd
4r
=178
4ccc:
8r
16a
16g#
8a
8b
8cc
8ee#
=179
8ff#
8gg#
8aa
8bb
4ccc
4r
=180
16bb
16aa
16ccc
16bb
8ddd
8ff#
16gg
16ff#
16aa
16gg
8bb
8dd#
=181
16ee
16dd#
16ff#
16ee
8gg
8b
16cc
16b
16dd
16cc
8ee
8a
=182
16b
16a
16cc
16b
8dd
8f#
16g
16f#
16a
16g
8b
8d
=183
8.e
16d
8.c
16B
8.c
16A
8.G
16F#
=184
8G
16B
16d
8g
8g
4g
4r
=185
8ff#
8gg
8ff#
8gg
8ff#
8gg
8ff#
8gg
=186
8ff
8gg
8ee
8gg
8ff
8gg
8dd
8gg
=187
8cc
8gg
8cc
8gg
8ee
8gg
8ee
8gg
=188
8ff
8gg
8ff
8gg
8dd
8gg
8dd
8gg
=189
8ee
8gg
8cc
8gg
8b
8gg
8dd
8gg
=190
8cc
8gg
8cc
8aa
8b
8dd
8ff#
8gg
=191
8ee
8ff
8gg
8ee
2cc
=192
8dd
8ee
8ff
8dd
2bb
=193
16ccc
8.bb
16aa
8.gg
16ee
8.ff
4r
=194
16ff
8.ee
16dd
8.cc
16aa
8.gg
4r
=195
2gg
8ff
8ee
8dd
8cc
=196
2aa
8gg
8ff
8ee
8dd
=197
16ee
16ff
16gg
16ee
8cc
8r
16dd
16ee
16ff
16dd
8b
8r
=198
2gg
16ff
16gg
16ff
16ee
16dd
16ee
16dd
16cc
=199
2ccc
16bb
16ccc
16bb
16aa
16gg
16aa
16gg
16ff
=200
8ee
8cc
4ff
8ee
8cc
4aa
=201
8gg
8cc
4ff
8ee
8cc
4aa
=202
2bb-
4bb-
4bb-
=203
8aa
8gg
8ff
8ee
8dd
8cc
8b
8a
=204
8g
16a
16b
16cc
16dd
16ee
16ff
16ff#
16gg
16aa
16gg
16ff
16ee
16dd
16cc
=205
1dd
=206
4cc
8r
8ee
8gg
8ff
8r
8dd
=207
8ff
8ee
8r
8cc
8ee
8dd
8r
8b
=208
8dd
8cc
16ee
16ff
16gg
16ee
16ff
16gg
16aa
16ff
16dd
16ee
16ff
16dd
=209
16ee
16ff
16gg
16ee
16cc
16dd
16ee
16cc
16dd
16ee
16ff
16dd
16b
16cc
16dd
16b
=210
2cc
2g
=211
4.ee
16ff
16dd
4cc
16dd
16ff
16gg
16bb
=212
16cc
16ee
16gg
16ccc
16dd
16ff
16gg
16bb
16cc
16ee
16gg
16ccc
16dd
16ff
16gg
16bb
=213
4ccc
4cc
4cc
4r
==
*-
